X:1
T:La loy d'honneur
T:Gentian
T:Source : Livre XI de 28 chansons nouvelles à 4 parties---Paris---P.Attaingnant---1542. Editor : André Vierendeels (05/06/18) Notes : Original clefs : C1, C3, C3, F4 Origunal note values have been halved Editorial accidentals above the staff
T:La loy d'honneur
T:©
T:©
T:©
T:©
C:Gentian
Z:©
%%score [ 1 [ 2 3 4 ] ]
L:1/8
Q:1/4=120
M:2/2
K:F
V:1 treble nm="Alto" snm="A"
V:2 treble-8 nm="Tenor 1" snm="T 1"
V:3 treble-8 nm="Tenor 2" snm="T 2"
V:4 bass nm="Bass" snm="T"
V:1
 F8 | D4 E4 | F6 F2 | B2 B2 A2 A2 | G4 A4 | z2 F2 F2 G2 | AGAB c2 c2 | B2 B2 A3 G/F/ | EDEF GFED | %9
w: La|loy d'hon-|neur qui|nous dict et com-|man- de,|de te- nir|cher _ _ _ _ et|re- fu- ser _ _|_ _ _ _ _ _ _ _|
w: Que|la plus-|part des|hom- mes nous dem-|man- de,|ce- la s'en-|tend _ _ _ _ à|ceulx qui n'ay- * *||
 C2 F4 E2 | F4 z4 :| A4 G2 G2 | F3 E DEFG | A2 A2 B3 B | A2 A2 G4 | z2 G2 A4 | c4 BAGF | %17
w: * * ung|poinct,|quant est de|moy, _ _ _ _ _|_ puis- que l'a-|mour me poingt,|ie tiens|la loy _ _ _|
w: * * ment|poinct,|||||||
 E2 F2 G2 B2 | A2 G4 F2 | G4 G4 | AGFE F2 F2 | E4 F4 | F3 G A2 B2- | B2 A4 G2 | A4 z2 F2 | %25
w: _ dé- fia tou-|te'a- ba- tu-|e, et|croy _ _ _ _ qu'a-|mour veult|que _ ie m'es-|* ver- tu-|e, pre-|
w: ||||||||
 E2 F2 G2 A2 | c2 c2 B2 A2- | AGFE D2 F2 | FG A4 GF |[M:2/4] E4 |:[M:2/2] z4 F4- | F4 D4 | E4 F4- | %33
w: mie- re- ment me|vou- loir se- cou-|||rir,|puis|_ de|gar- der|
w: ||||||||
 F2 F2 B2 B2 | A4 G4 | A4 z2 F2 | G4 A4 | B6 A2 |"^-natural" G2 F2 E2 D2 | E3 F G2 F2- | %40
w: _ ung a- my|de mou-|rir, la|mort du-|quel aul-|tre que moy ne|tu- * * *|
w: |||||||
 F2 E2 !fermata!F4 :| %41
w: * * e.|
w: |
V:2
 A8 | B4 c4 | d4 d4 | f2 f2 f3 e | d2 cB cBAG | A2 F4 c2 | c2 d2 e2 c2 | d3 e f2 F2 | G4 G4 | %9
w: La|loy d'hon-|neur qui|nous dict et _|_ com- * man- * * *|de, de te-|nir cher et re-|fu- * ser ung|poinct, et|
w: Que|la plus-|part des|hom- mes nous _|_ dem- * man- * * *|de, ce- la|s'en- tend à ceulx|qui _ n'ay- ment|poinct, à|
 E2 c2 c2 c2 | A4 z4 :| f4 d2 c2 | d4 z2 d2 | c2 c2 dcde | f2 f2 d4 | z2 e2 f4 | edef g2 G2 | %17
w: re- fu- ser ung|poinct,|quant est de|moy, puis-|que l'a- mour _ _ _|_ me poingt,|ie tiens|la _ _ _ loy dé-|
w: ceulx qui n'ay- ment|poinct,|||||||
 A2 d2 d2 d2 | fedc d4 | z2 d2 d2 e2 | f2 F2 B2 d2 | c4 A4 | d2 d2 e2 f2 | f4 d4 | z2 f2 d2 d2 | %25
w: fia tou- t'ea- ba-|tu- * * * e,|et croy qu'a-|mour, et croy qu'a-|mour veult|que ie m'es- ver-|tu- e,|pre- mie- re-|
w: ||||||||
 c2 A2 G2 d2 | G2 A2 B2 c2 | F4 F3 G | AB c4 B2 |[M:2/4] c4 |:[M:2/2] z4 A4- | A4 B4 | c4 d4 | %33
w: ment me vou- loir|se- * * cou-|rir, se- *|* * * cou-|rir,|puis|_ de|gar- der|
w: ||||||||
 d4 f2 f2 | f4 d4 | d4 z2 d2 | e4 f4 | f4 _e4- | e2 c4 B2 | c4 d4 | c4 !fermata!c4 :| %41
w: ung a- my|de mou-|rir, la|mort du-|quel aul-|* tre que|moy ne|tu- e.|
w: ||||||||
V:3
 F8 | F4 A4 | A2 F2 BABc | d2 d2 c2 c2 | B4 A2 c2 | c2 d2 c3 B | A4 z2 F2 | F2 G2 AGAB | %8
w: La|loy d'hon-|neur qui nous _ _ _|_ dict et com-|man- de, de|te- nir cher _|_ et|re- fu- ser _ _ _|
w: Que|la plus-|part des hom- * * *|* mes nous dem-|man- de, ce-|la s'en- tend _|_ à|ceulx qui n'ay- * * *|
 c2 c2 B2 B2 | A4 G4 | F4 z4 :| c4 B2 G2 | A2 A2 B3 B | A2 A2 GABc | d2 c4 B2 | c4 z2 c2 | %16
w: _ ung poinct, et|re- fu-|ser,|quant est de|moy, puis- que l'a-|mour me poingt, _ _ _|_ _ _|* ie|
w: * ment poinct, qui|n'ay- ment|poinct,||||||
 c2 c2 d2 d2 | c2 A2 B2 B2 | cBAG A4 | G4 z2 B2 | c2 c2 dcBA | G2 G2 F2 D2 | FGAB c2 d2- | %23
w: tiens la loy dé-|fia tou- te'a- ba-|tu _ _ _ _|e, et|croy qu'a- mour _ _ _|_ veult que ie|m'es- * * * * ver-|
w: |||||||
 d2 c2 B4 | A8- | A4 z2 F2 | E2 F2 G2 A2 | c2 c2 B2 A2- | AGFE F4 |[M:2/4] G4 |:[M:2/2] z4 F4- | %31
w: * * tu-|e,|_ pre-|mie- re- ment vou-|loir se- cou- *||rir,|puis|
w: ||||||||
 F4 F4 | A4 A2 F2 | B3 c d2 d2 | c4 B4 | A8 | z2 c2 c4 | d4 B4- | B2 A2 G2 F2 | EFGA B2 B2 | %40
w: _ de|gar- der ung|a- * * my|de mou-|rir,|la mort|du- quel|_ aul- tre que|moy _ _ _ _ ne|
w: |||||||||
 G4 !fermata!F4 :| %41
w: tu- e.|
w: |
V:4
 F,,8 | B,,4 A,,4 | D,4 B,,4 | B,,2 B,,2 F,2 F,2 | G,4 F,4- | F,4 z2 C,2 | F,2 D,2 C,2 A,,2 | %7
w: La|loy d'hon-|neur qui|nous dict et com-|man- de,|_ de|te- nir cher et|
w: Que|la plus-|part des|hom- mes nous dem-|man- de,|_ ce-|la s'en- tend à|
 B,,2 G,,2 D,2 D,2 | C,3 B,, G,,2 G,,2 | A,,2 F,,2 C,2 C,2 | F,,4 z4 :| F,4 G,2 E,2 | %12
w: re- fu- ser ung|poinct, _ _ et|re- fu- ser ung|poinct,|quant est de|
w: ceulx qui n'ay- ment|point, _ _ à|ceulx qui n'ay- ment|poinct,||
 D,2 D,2 B,,2 B,,2 | F,4 z2 G,2 |"^#" F,2 F,2 G,2 G,2 |"^-natural" C,2 C,2 F,3 G, | A,2 A,2 G,4 | %17
w: moy, puis- que l'a-|mour, puis-|que l'a- mour nous|poingt, ie tiens _|_ la loy|
w: |||||
 z2 D,2 G,2 G,2 | F,2 G,2 D,4 | G,,2 G,2 G,2 G,2 | F,4 z2 B,,2 | C,2 C,2 D,4 | D,4 C,2 B,,2 | %23
w: dé- fia tou-|te'a- ba tu-|e, et croy qu'a-|mour, et|croy qu'a- mour|veult que ie|
w: ||||||
 F,2 F,2 G,4 | D,8 | z2 F,2 E,2 D,2 | C,2 A,,2 G,,2 F,,2- | F,,G,, A,,2 B,,C,D,E, | F,E,D,C, D,4 | %29
w: m'es- ver- tu-|e,|pe- mie- re-|ment vou- loir se-|* * * cou- * * *||
w: ||||||
[M:2/4] C,4 |:[M:2/2] z4 F,,4- | F,,4 B,,4 | A,,4 D,4 | B,,4 B,,2 B,,2 | F,4 G,4 | D,8 | %36
w: rir,|puis|_ de|gar- der|ung a- my|de mou-|rir,|
w: |||||||
 z2 C,2 F,4 | B,,4 _E,4- | E,2 F,2 C,2 D,2 | C,4 B,,4 | C,4 !fermata!F,,4 :| %41
w: la mort|du- quel|_ aul- tre que|moy ne|tu- e.|
w: |||||

